X:1
T:My Peggy's Face
M:2/4
L:1/16
K:Eb
 z4 z2E-D| C3 D E3 F| G3 F G3 =A| B3 cB-GF-E| D2B,2 B,2E-D| C3 D E3 F|\
G-FG-=A B3 G| F2F2G-FD-F| E2C2 C2c2| G2c2e-dc-=B| c3 d c2d-e| f3 g f2c-e|\
 d2B2 B2c2| G2c2 d2c-=B| c3 d e3 g| f2d2g-fe-d| e2c2 c2 z2|
